X: 3042
T: JOHNNIE'S MADE A WEDDING O'T
Q:"Reel."
R: Reel.
%R:reel
B: James Kerr "Merry Melodies" v.3 p.7 #42
Z: 2016 John Chambers <jc:trillian.mit.edu>
M: C
L: 1/8
K: G
uc |\
BGdG BGGB | A=FcF AFFA |\
BGdG BGGg | egdg BGG ::\
g |\
bgaf gdde |
=fdc_B A=FFg |\
[1 (b/a/g) (a/g/f) gddg | egfa gGG :|\
[2 GBAc Bdce | dgfa gGG |]

%%sep 1 1 500
%%sep 1 1 500

